X:6741
T:The Fair Grounds
O:england
R:Hornpipe
C:Ed Reavy
M:4/4
L:1/8
N:For the many fairs held in the old days.
N:The land still feels special on the grounds
N:where those grand old festivals were held.
N:(A tune Ed dedicated to his old friend Tom Caulfield.)
K:A
E2|AcBd c<EGB|Aceg aece|dfBd ceAc|dBcA GEDG|
AcBd c<EGB|Aceg aece|dfBd ceAc|B<EGB A2:||
ce|agab aece|dcdf ecAc|defd cdec|BcdB GEDG|AcBd cedf|
efge aged|ceAc (3BcB GB|Aaec A2:||
